X: 4
T: Garrett Barry's
R: reel
M: 4/4
L: 1/8
K: Gmaj
G3B d2 Bd|edBe dBAB|G3B d2 BG|ABGE D2 DE|G2 GB d2 Bd|edBA GA B/c/d|edBA Bdef|1 gedB ADFA:|2 gedB A3f||g2 Bg gage|dB{d}BA GA B/c/d|g2 fa gedg|ea{b}ag a2 ga|b~g3 a2 ge|dBAB GA B/c/d|edBA Bdef|1 gedB A3f:|2 gedB ADFA||


Tune 3434	Setting 16476

